T: Ballivanich, The
M: 4/4
L: 1/8
K: Bmin
|:f3e dBBd |AB3 faag |f3e dBBd |cA A2 eAce |
f3e dBBd |AB3 faaf |g3f efed |cA A2 eAce:||
|:fBdA B3 d |ef3 faag |fBdA B3 d |cA A2 eAce |
fBdA B3 d |ef3 faaf |g2 fg efed |cA A2 [1eAce:|[2eAcA|
|:Bfag f3e|dB B2 df f2|ceag efed|cA A2 eAcA|
dfag f3e|dB B2 df f2|a3g efed|1cA A2 eAcA:|2cA A2 EAce||
